X: 87
T:Don Tremaine's Reel
% Nottingham Music Database
S:New England, via PR
M:4/4
L:1/4
K:D
"D"A/2B/2A/2G/2 F/2D/2E/2F/2|"G"G/2F/2G/2A/2 B/2c/2d/2B/2|\
"A7"A/2c/2e/2g/2 f/2d/2e/2c/2|"D"d/2A/2F/2G/2 AF/2G/2|
"D"A/2B/2A/2G/2 F/2D/2E/2F/2|"G"G/2F/2G/2A/2 B/2c/2d/2B/2|\
"A7"A/2c/2e/2g/2 f/2d/2e/2c/2|"D"dd/2d/2 dz::
"G"g/2a/2g/2e/2 "D"f/2g/2f/2d/2|"A7"e/2f/2e/2d/2 c/2A/2e/2f/2|\
"G"g/2f/2e/2g/2 "D"f/2e/2d/2f/2|"A7"ea/2^g/2 ae/2f/2|
"G"g/2a/2g/2e/2 "D"f/2g/2f/2d/2|"A7"e/2f/2e/2d/2 c/2B/2A/2F/2|\
"G"G/2F/2E/2G/2 "D"F/2E/2D/2F/2|"A7"E/2D/2E/2F/2 "D"D2:|<end>
<start>
